public/icons/basket.svg

<svg width="24" height="24" viewBox="0 0 24 24" fill="none" xmlns="http://www.w3.org/2000/svg">
<path d="M20.8347 24H3.1653L1.1655 12.8375H0V6.7489H3.54L9.2406 0L10.7592 1.32092L6.1743 6.7492H17.8257L13.2408 1.32092L14.7594 0L20.46 6.7489H24V12.8375H22.8345L20.8344 24H20.8347ZM4.8345 21.9704H19.1655L20.8017 12.8375H3.1983L4.8348 21.9704H4.8345ZM2.0001 10.8082H22.0002V8.77853H2.0001V10.8082ZM17.0001 19.941H15V14.8671H17.0001V19.941ZM12.9999 19.941H10.9998V14.8671H12.9999V19.941ZM9 19.941H6.9999V14.8671H9V19.941Z" fill="white"/>
</svg>

<svg xmlns="http://www.w3.org/2000/svg" viewBox="0 0 24 24">
	<path d="M20.83,24H3.17l-2-11.16H0v-6.09h3.54L9.24,0l1.52,1.32-4.58,5.43h11.65L13.24,1.32l1.52-1.32,5.7,6.75h3.54v6.09h-1.17l-2,11.16h0ZM4.83,21.97h14.33l1.64-9.13H3.2l1.64,9.13h0ZM2,10.81h20v-2.03H2v2.03ZM17,19.94h-2v-5.07h2v5.07ZM13,19.94h-2v-5.07h2v5.07ZM9,19.94h-2v-5.07h2v5.07Z" style="fill: #fff;" />
</svg>
